X:1
T:Title
%%score { ( 1 3 5 ) | ( 2 4 ) }
L:1/8
M:3/4
K:Ab
V:1 treble nm="Grand Piano"
V:3 treble 
V:5 treble 
V:2 bass 
V:4 bass 
V:1
 z2 z[Q:1/4=74] A GF | z C CF FE | z E Ed cB | F4 z2 | z C CA GF | =E4 z2 | A4 z2 | B4 z2 | %8
[M:3/8] B3 | EEE |[M:3/4] [Ec]4 z2 | [EB]4 z2 | d3 B[K:bass][K:treble] z2 |[M:3/8] [Ec]3 | %14
 [CE][CE][CE] |[M:3/4] [Ee]4 z2 |[M:15/16] [FA]3/2- [FA]3 z3 | %17
[M:3/4] z e3 z2[Q:1/4=73][Q:1/4=72][Q:1/4=71][Q:1/4=70][Q:1/4=69][Q:1/4=67][Q:1/4=66][Q:1/4=65][Q:1/4=64][Q:1/4=63][Q:1/4=62][Q:1/4=61] | %18
[M:7/16] A-[FA-][EA]3/2[Q:1/4=60][Q:1/4=59][Q:1/4=58][Q:1/4=57] |] %19
V:2
 z2 z A, G,F, | z A, A,F, F,E, | z[K:treble] D DD CB, | z B, B,G, F,E, | z A, A,A, G,F, | %5
 z G, G,C, F,G, | A,3 A, G,F, | [EG]E =D2[K:bass] B,2 |[M:3/8] [E,G,E][F,A,=DF][G,B,_DE] | %9
 [A,C][A,C][A,C] |[M:3/4] [A,,A,]A,, A,,[A,,E,] [B,,E,][C,A,] | [E,G,]E, E,[E,G,] [E,G,][E,G,] | %12
 E4 z2 |[M:3/8] [A,,A,]A,,A,, | [A,,A,][A,,A,][A,,A,] |[M:3/4] [C,A,]C, C,[A,,A,] [B,,G,][C,A,] | %16
[M:15/16] [D,A,]D,/-D,/D,-D,3/2[=E,_C=E][E,CE]/-[E,CE]/[E,C=D] |[M:3/4] [E,C][E,C] E,2 E,2 | %18
[M:7/16] z DC3/2 |] %19
V:3
 x6 | E4 z2 | G4 z2 | z D DG FE | E4 z2 | z C CC FG | z C CA GF | z G F2 B2 |[M:3/8] GAG | x3 | %10
[M:3/4] z A, A,[CA] [DG][EA] | z G, G,E EE | z A, .B,>[K:bass]D,[K:treble] [EA][EB] | %13
[M:3/8] z A,A, | x3 |[M:3/4] z A, A,[Ec] [EB][_GA] |[M:15/16] z A,/-A,/D-D3/2AA/-A/A | %17
[M:3/4] z2 D2 [DEB]2 |[M:7/16] [CE] z/ z/ z/ z |] %19
V:4
 x6 | E,4 z2 | G,4[K:treble] z2 | F,4 z2 | E,4 z2 | =E,4 z2 | x6 | B,4[K:bass] z2 |[M:3/8] x3 | %9
 x3 |[M:3/4] x6 | x6 | [E,G,]F, G,.[E,G,E] [C,A,][B,,G,] |[M:3/8] x3 | x3 |[M:3/4] x6 | %16
[M:15/16] x15/2 |[M:3/4] x6 |[M:7/16] A,,/-A,,/-A,,/-A,,-<A,, |] %19
V:5
 x6 | x6 | x6 | x6 | x6 | x6 | x6 | x6 |[M:3/8] x3 | x3 |[M:3/4] x6 | x6 | %12
 x7/2[K:bass] x/[K:treble] x2 |[M:3/8] x3 | x3 |[M:3/4] x6 |[M:15/16] x15/2 |[M:3/4] E4 z2 | %18
[M:7/16] x7/2 |] %19

